_includes/icons/ios-gear-pok.svg

<svg fill="#666" height="50" viewBox="0 0 50 50" width="50" xmlns="http://www.w3.org/2000/svg"><path d="m25 2c-2.847113 0-5 2.3838269-5 5.1699219v2.7246093c-.741312.2447908-1.456106.5422168-2.146484.8886718l-1.925782-1.9257811c-1.969827-1.9698277-5.17825-2.1342494-7.1914059-.1210938-2.0131556 2.0131559-1.8487339 5.2215789.1210938 7.1914059l1.9257811 1.925782c-.346438.689946-.643996 1.40514-.8886718 2.146484h-2.7246093c-2.786095 0-5.1699219 2.152887-5.1699219 5s2.3838269 5 5.1699219 5h2.7246093c.2447908.741312.5422168 1.456106.8886718 2.146484l-1.9257811 1.925782c-1.9698277 1.969827-2.1342494 5.17825-.1210938 7.191406 2.0131559 2.013155 5.2215789 1.848734 7.1914059-.121094l1.925782-1.925781c.690378.346455 1.405172.643881 2.146484.888672v2.724609c0 2.786095 2.152887 5.169922 5 5.169922s5-2.383827 5-5.169922v-2.724609c.741312-.244791 1.456106-.542217 2.146484-.888672l1.925782 1.925781c1.969827 1.969828 5.17825 2.134249 7.191406.121094 2.013155-2.013156 1.848734-5.221579-.121094-7.191406l-1.925781-1.925782c.346455-.690378.643881-1.405172.888672-2.146484h2.724609c2.786095 0 5.169922-2.152887 5.169922-5s-2.383827-5-5.169922-5h-2.724609c-.244791-.741312-.542217-1.456106-.888672-2.146484l1.925781-1.925782c1.969828-1.969827 2.134249-5.17825.121094-7.1914059-2.013156-2.0131556-5.221579-1.8487339-7.191406.1210938l-1.925782 1.9257811c-.690378-.346455-1.405172-.643881-2.146484-.8886718v-2.7246093c0-2.786095-2.152887-5.1699219-5-5.1699219zm0 2c1.760887 0 3 1.3700168 3 3.1699219v4.1464841l.732422.203125c1.118852.309649 2.17897.747017 3.162109 1.304688l.66211.376953 2.929687-2.929688c1.272172-1.2721715 3.118437-1.3659382 4.363281-.121093 1.244845 1.244844 1.151079 3.091109-.121093 4.363281l-2.929688 2.929687.376953.66211c.557671.983139.995039 2.043257 1.304688 3.162109l.203125.732422h4.146484c1.799905 0 3.169922 1.239113 3.169922 3s-1.370017 3-3.169922 3h-4.146484l-.203125.732422c-.309649 1.118852-.747017 2.17897-1.304688 3.162109l-.376953.66211 2.929688 2.929687c1.272172 1.272172 1.365938 3.118437.121093 4.363281-1.244844 1.244845-3.091109 1.151079-4.363281-.121093l-2.929687-2.929688-.66211.376953c-.983139.557671-2.043257.995039-3.162109 1.304688l-.732422.203125v4.146484c0 1.799905-1.239113 3.169922-3 3.169922s-3-1.370017-3-3.169922v-4.146484l-.732422-.203125c-1.118852-.309649-2.17897-.747017-3.162109-1.304688l-.66211-.376953-2.929687 2.929688c-1.272172 1.272172-3.118437 1.365938-4.363281.121093-1.2448452-1.244844-1.1510785-3.091109.121093-4.363281l2.929688-2.929687-.376953-.66211c-.557671-.983139-.995039-2.043257-1.304688-3.162109l-.203125-.732422h-4.1464841c-1.7999051 0-3.1699219-1.239113-3.1699219-3s1.3700168-3 3.1699219-3h4.1484371l.201172-.734375c.308431-1.117829.746781-2.176602 1.304688-3.160156l.376953-.66211-2.929688-2.929687c-1.2721715-1.272172-1.3659382-3.118437-.121093-4.363281 1.244844-1.2448452 3.091109-1.1510785 4.363281.121093l2.929687 2.929688.66211-.376953c.983139-.557671 2.043257-.995039 3.162109-1.304688l.732422-.203125v-4.1464841c0-1.7999051 1.239113-3.1699219 3-3.1699219zm0 11c-5.511003 0-10 4.488997-10 10s4.488997 10 10 10 10-4.488997 10-10-4.488997-10-10-10zm0 2c4.090654 0 7.441154 3.045772 7.931641 7h-3.033203c-.466878-2.274608-2.491229-4-4.898438-4s-4.43156 1.725392-4.898438 4h-3.033203c.490487-3.954228 3.840987-7 7.931641-7zm0 5c1.668699 0 3 1.331301 3 3s-1.331301 3-3 3-3-1.331301-3-3 1.331301-3 3-3zm-7.931641 4h3.033203c.466878 2.274608 2.491229 4 4.898438 4s4.43156-1.725392 4.898438-4h3.033203c-.490487 3.954228-3.840987 7-7.931641 7s-7.441154-3.045772-7.931641-7z"/></svg>

<svg xmlns="http://www.w3.org/2000/svg" viewBox="0 0 50 50" width="50" height="50" fill="#666"><path style="line-height:normal;text-indent:0;text-align:start;text-decoration-line:none;text-decoration-style:solid;text-decoration-color:#000;text-transform:none;block-progression:tb;isolation:auto;mix-blend-mode:normal" d="M 25 2 C 22.152887 2 20 4.3838269 20 7.1699219 L 20 9.8945312 C 19.258688 10.139322 18.543894 10.436748 17.853516 10.783203 L 15.927734 8.8574219 C 13.957907 6.8875942 10.749484 6.7231725 8.7363281 8.7363281 C 6.7231725 10.749484 6.8875942 13.957907 8.8574219 15.927734 L 10.783203 17.853516 C 10.436765 18.543462 10.139207 19.258656 9.8945312 20 L 7.1699219 20 C 4.3838269 20 2 22.152887 2 25 C 2 27.847113 4.3838269 30 7.1699219 30 L 9.8945312 30 C 10.139322 30.741312 10.436748 31.456106 10.783203 32.146484 L 8.8574219 34.072266 C 6.8875942 36.042093 6.7231725 39.250516 8.7363281 41.263672 C 10.749484 43.276827 13.957907 43.112406 15.927734 41.142578 L 17.853516 39.216797 C 18.543894 39.563252 19.258688 39.860678 20 40.105469 L 20 42.830078 C 20 45.616173 22.152887 48 25 48 C 27.847113 48 30 45.616173 30 42.830078 L 30 40.105469 C 30.741312 39.860678 31.456106 39.563252 32.146484 39.216797 L 34.072266 41.142578 C 36.042093 43.112406 39.250516 43.276827 41.263672 41.263672 C 43.276827 39.250516 43.112406 36.042093 41.142578 34.072266 L 39.216797 32.146484 C 39.563252 31.456106 39.860678 30.741312 40.105469 30 L 42.830078 30 C 45.616173 30 48 27.847113 48 25 C 48 22.152887 45.616173 20 42.830078 20 L 40.105469 20 C 39.860678 19.258688 39.563252 18.543894 39.216797 17.853516 L 41.142578 15.927734 C 43.112406 13.957907 43.276827 10.749484 41.263672 8.7363281 C 39.250516 6.7231725 36.042093 6.8875942 34.072266 8.8574219 L 32.146484 10.783203 C 31.456106 10.436748 30.741312 10.139322 30 9.8945312 L 30 7.1699219 C 30 4.3838269 27.847113 2 25 2 z M 25 4 C 26.760887 4 28 5.3700168 28 7.1699219 L 28 11.316406 L 28.732422 11.519531 C 29.851274 11.82918 30.911392 12.266548 31.894531 12.824219 L 32.556641 13.201172 L 35.486328 10.271484 C 36.7585 8.9993125 38.604765 8.9055458 39.849609 10.150391 C 41.094454 11.395235 41.000688 13.2415 39.728516 14.513672 L 36.798828 17.443359 L 37.175781 18.105469 C 37.733452 19.088608 38.17082 20.148726 38.480469 21.267578 L 38.683594 22 L 42.830078 22 C 44.629983 22 46 23.239113 46 25 C 46 26.760887 44.629983 28 42.830078 28 L 38.683594 28 L 38.480469 28.732422 C 38.17082 29.851274 37.733452 30.911392 37.175781 31.894531 L 36.798828 32.556641 L 39.728516 35.486328 C 41.000688 36.7585 41.094454 38.604765 39.849609 39.849609 C 38.604765 41.094454 36.7585 41.000688 35.486328 39.728516 L 32.556641 36.798828 L 31.894531 37.175781 C 30.911392 37.733452 29.851274 38.17082 28.732422 38.480469 L 28 38.683594 L 28 42.830078 C 28 44.629983 26.760887 46 25 46 C 23.239113 46 22 44.629983 22 42.830078 L 22 38.683594 L 21.267578 38.480469 C 20.148726 38.17082 19.088608 37.733452 18.105469 37.175781 L 17.443359 36.798828 L 14.513672 39.728516 C 13.2415 41.000688 11.395235 41.094454 10.150391 39.849609 C 8.9055458 38.604765 8.9993125 36.7585 10.271484 35.486328 L 13.201172 32.556641 L 12.824219 31.894531 C 12.266548 30.911392 11.82918 29.851274 11.519531 28.732422 L 11.316406 28 L 7.1699219 28 C 5.3700168 28 4 26.760887 4 25 C 4 23.239113 5.3700168 22 7.1699219 22 L 11.318359 22 L 11.519531 21.265625 C 11.827962 20.147796 12.266312 19.089023 12.824219 18.105469 L 13.201172 17.443359 L 10.271484 14.513672 C 8.9993125 13.2415 8.9055458 11.395235 10.150391 10.150391 C 11.395235 8.9055458 13.2415 8.9993125 14.513672 10.271484 L 17.443359 13.201172 L 18.105469 12.824219 C 19.088608 12.266548 20.148726 11.82918 21.267578 11.519531 L 22 11.316406 L 22 7.1699219 C 22 5.3700168 23.239113 4 25 4 z M 25 15 C 19.488997 15 15 19.488997 15 25 C 15 30.511003 19.488997 35 25 35 C 30.511003 35 35 30.511003 35 25 C 35 19.488997 30.511003 15 25 15 z M 25 17 C 29.090654 17 32.441154 20.045772 32.931641 24 L 29.898438 24 C 29.43156 21.725392 27.407209 20 25 20 C 22.592791 20 20.56844 21.725392 20.101562 24 L 17.068359 24 C 17.558846 20.045772 20.909346 17 25 17 z M 25 22 C 26.668699 22 28 23.331301 28 25 C 28 26.668699 26.668699 28 25 28 C 23.331301 28 22 26.668699 22 25 C 22 23.331301 23.331301 22 25 22 z M 17.068359 26 L 20.101562 26 C 20.56844 28.274608 22.592791 30 25 30 C 27.407209 30 29.43156 28.274608 29.898438 26 L 32.931641 26 C 32.441154 29.954228 29.090654 33 25 33 C 20.909346 33 17.558846 29.954228 17.068359 26 z"/></svg>
